Icons/com_joelapenna_foursquared.svg

<svg viewBox="0 0 48 48" xmlns:xlink="http://www.w3.org/1999/xlink">
 <defs>
  <linearGradient id="0">
   <stop stop-opacity="0"/>
   <stop offset="1"/>
  </linearGradient>
  <linearGradient xlink:href="#0" id="1" gradientUnits="userSpaceOnUse" gradientTransform="translate(4e-7,-48)" y1="47" x2="0" y2="1"/>
  <clipPath id="2">
   <g transform="translate(0,-1004.3622)">
    <rect rx="4" y="1005.36" x="1" height="46" width="46" fill="#1890d0"/>
   </g>
  </clipPath>
  <clipPath id="3">
   <g transform="translate(0,-1004.3622)">
    <rect rx="4" y="1005.36" x="1" height="46" width="46" fill="#1890d0"/>
   </g>
  </clipPath>
 </defs>
 <g>
  <g transform="translate(0,-1004.3622)">
   <path d="m 5,1006.3622 c -2.216,0 -4,1.784 -4,4 l 0,37.25 c 0,2.216 1.784,4 4,4 l 38,0 c 2.216,0 4,-1.784 4,-4 l 0,-37.25 c 0,-2.216 -1.784,-4 -4,-4 l -38,0 z m -4,41.5 0,0.5 c 0,2.216 1.784,4 4,4 l 38,0 c 2.216,0 4,-1.784 4,-4 l 0,-0.5 c 0,2.216 -1.784,4 -4,4 l -38,0 c -2.216,0 -4,-1.784 -4,-4 z" opacity="0.02"/>
   <path d="m 1,1047.6122 0,0.25 c 0,2.216 1.784,4 4,4 l 38,0 c 2.216,0 4,-1.784 4,-4 l 0,-0.25 c 0,2.216 -1.784,4 -4,4 l -38,0 c -2.216,0 -4,-1.784 -4,-4 z" opacity="0.05"/>
   <rect width="46" height="46" x="1" y="1005.61" rx="4" opacity="0.1"/>
  </g>
 </g>
 <g>
  <g transform="translate(0,-1004.3622)">
   <rect rx="4" y="1005.36" x="1" height="46" width="46" fill="#3dbbef"/>
  </g>
 </g>
 <g>
  <rect transform="scale(1,-1)" width="46" height="46" x="1" y="-46.998" rx="4" opacity="0.1" fill="url(#1)"/>
 </g>
 <g>
  <g clip-path="url(#2)">
   <g opacity="0.1">
    <g>
     <path d="M 23.324219 36.925781 C 20.371094 36.195312 13.546875 29.683594 11.5 25.644531 C 10.835938 24.335938 10.835938 23.59375 11.496094 22.292969 C 12.410156 20.488281 14.273438 18.183594 16.777344 15.75 C 20.007812 12.617188 22.464844 11 24 11 C 25.589844 11 28.265625 12.804688 31.671875 16.171875 C 34.476562 18.941406 36.359375 21.488281 36.863281 23.191406 C 37.097656 23.984375 37.042969 24.480469 36.621094 25.441406 C 35.191406 28.691406 28.9375 35.007812 25.609375 36.558594 C 24.707031 36.980469 24.003906 37.09375 23.324219 36.925781 Z M 23.324219 36.925781 "/>
     <path d="m 19,17 -4,6 9,5 c 0.460938,0.179688 0.589844,0.257812 1,0 L 48,11 48,0 37,0 25,22 c -0.488281,0.363281 -0.460938,0.335938 -1,0 z" fill-opacity="0.8"/>
     <path d="M 20 19 C 20 22.3125 17.3125 25 14 25 C 10.6875 25 8 22.3125 8 19 C 8 15.6875 10.6875 13 14 13 C 17.3125 13 20 15.6875 20 19 Z M 20 19 "/>
    </g>
   </g>
  </g>
 </g>
 <g>
  <g clip-path="url(#3)">
   <g transform="translate(0,-1)">
    <g>
     <path d="M 23.324219 36.925781 C 20.371094 36.195312 13.546875 29.683594 11.5 25.644531 C 10.835938 24.335938 10.835938 23.59375 11.496094 22.292969 C 12.410156 20.488281 14.273438 18.183594 16.777344 15.75 C 20.007812 12.617188 22.464844 11 24 11 C 25.589844 11 28.265625 12.804688 31.671875 16.171875 C 34.476562 18.941406 36.359375 21.488281 36.863281 23.191406 C 37.097656 23.984375 37.042969 24.480469 36.621094 25.441406 C 35.191406 28.691406 28.9375 35.007812 25.609375 36.558594 C 24.707031 36.980469 24.003906 37.09375 23.324219 36.925781 Z M 23.324219 36.925781 " fill="#254e69"/>
     <path d="m 19,17 -4,6 9,5 c 0.460938,0.179688 0.589844,0.257812 1,0 L 48,11 48,0 37,0 25,22 c -0.488281,0.363281 -0.460938,0.335938 -1,0 z" fill="#f8f8f8" fill-opacity="0.8"/>
     <path d="M 20 19 C 20 22.3125 17.3125 25 14 25 C 10.6875 25 8 22.3125 8 19 C 8 15.6875 10.6875 13 14 13 C 17.3125 13 20 15.6875 20 19 Z M 20 19 " fill="#8bd134"/>
    </g>
   </g>
  </g>
 </g>
 <g>
  <g transform="translate(0,-1004.3622)">
   <path d="m 1,1043.3622 0,4 c 0,2.216 1.784,4 4,4 l 38,0 c 2.216,0 4,-1.784 4,-4 l 0,-4 c 0,2.216 -1.784,4 -4,4 l -38,0 c -2.216,0 -4,-1.784 -4,-4 z" opacity="0.1"/>
  </g>
 </g>
</svg>

<svg viewBox="0 0 48 48"><defs><linearGradient id="linearGradient3764" x1="1" x2="47" gradientUnits="userSpaceOnUse" gradientTransform="translate(-48.000001,0.00221467)"><stop stop-color="#2bb4ed" stop-opacity="1"/><stop offset="1" stop-color="#3dbbef" stop-opacity="1"/></linearGradient><clipPath id="clipPath-760141194"><g transform="translate(0,-1004.3622)"><rect rx="4" y="1005.36" x="1" height="46" width="46" fill="#1890d0"/></g></clipPath><clipPath id="clipPath-773788744"><g transform="translate(0,-1004.3622)"><rect rx="4" y="1005.36" x="1" height="46" width="46" fill="#1890d0"/></g></clipPath></defs><g><path d="m 1 43 l 0 0.25 c 0 2.216 1.784 4 4 4 l 38 0 c 2.216 0 4 -1.784 4 -4 l 0 -0.25 c 0 2.216 -1.784 4 -4 4 l -38 0 c -2.216 0 -4 -1.784 -4 -4 z m 0 0.5 l 0 0.5 c 0 2.216 1.784 4 4 4 l 38 0 c 2.216 0 4 -1.784 4 -4 l 0 -0.5 c 0 2.216 -1.784 4 -4 4 l -38 0 c -2.216 0 -4 -1.784 -4 -4 z" opacity="0.02"/><path d="m 1 43.25 l 0 0.25 c 0 2.216 1.784 4 4 4 l 38 0 c 2.216 0 4 -1.784 4 -4 l 0 -0.25 c 0 2.216 -1.784 4 -4 4 l -38 0 c -2.216 0 -4 -1.784 -4 -4 z" opacity="0.05"/><path d="m 1 43 l 0 0.25 c 0 2.216 1.784 4 4 4 l 38 0 c 2.216 0 4 -1.784 4 -4 l 0 -0.25 c 0 2.216 -1.784 4 -4 4 l -38 0 c -2.216 0 -4 -1.784 -4 -4 z" opacity="0.1"/></g><g><rect width="46" height="46" x="-47" y="1" rx="4" transform="matrix(0,-1,1,0,0,0)" fill="url(#linearGradient3764)" fill-opacity="1"/></g><g><g clip-path="url(#clipPath-760141194)"><g opacity="0.1"><!-- color: #3dbbef --><g><path d="m 23.324 36.926 c -2.953 -0.73 -9.777 -7.242 -11.824 -11.281 c -0.664 -1.309 -0.664 -2.051 -0.004 -3.352 c 0.914 -1.805 2.777 -4.109 5.281 -6.543 c 3.23 -3.133 5.688 -4.75 7.223 -4.75 c 1.59 0 4.266 1.805 7.672 5.172 c 2.805 2.77 4.688 5.316 5.191 7.02 c 0.234 0.793 0.18 1.289 -0.242 2.25 c -1.43 3.25 -7.684 9.566 -11.01 11.12 c -0.902 0.422 -1.605 0.535 -2.285 0.367 m 0 0" fill="#000"/><path d="m 19 17 -4 6 9 5 c 0.461 0.18 0.59 0.258 1 0 l 23 -17 0 -11 -11 0 -12 22 c -0.488 0.363 -0.461 0.336 -1 0 z" fill-opacity="0.8" fill="#000"/><path d="m 20 19 c 0 3.313 -2.688 6 -6 6 c -3.313 0 -6 -2.688 -6 -6 c 0 -3.313 2.688 -6 6 -6 c 3.313 0 6 2.688 6 6 m 0 0" fill="#000"/></g></g></g></g><g><g clip-path="url(#clipPath-773788744)"><g transform="translate(0,-1)"><!-- color: #3dbbef --><g><path d="m 23.324 36.926 c -2.953 -0.73 -9.777 -7.242 -11.824 -11.281 c -0.664 -1.309 -0.664 -2.051 -0.004 -3.352 c 0.914 -1.805 2.777 -4.109 5.281 -6.543 c 3.23 -3.133 5.688 -4.75 7.223 -4.75 c 1.59 0 4.266 1.805 7.672 5.172 c 2.805 2.77 4.688 5.316 5.191 7.02 c 0.234 0.793 0.18 1.289 -0.242 2.25 c -1.43 3.25 -7.684 9.566 -11.01 11.12 c -0.902 0.422 -1.605 0.535 -2.285 0.367 m 0 0" fill="#254e69"/><path d="m 19 17 -4 6 9 5 c 0.461 0.18 0.59 0.258 1 0 l 23 -17 0 -11 -11 0 -12 22 c -0.488 0.363 -0.461 0.336 -1 0 z" fill="#f8f8f8" fill-opacity="0.8"/><path d="m 20 19 c 0 3.313 -2.688 6 -6 6 c -3.313 0 -6 -2.688 -6 -6 c 0 -3.313 2.688 -6 6 -6 c 3.313 0 6 2.688 6 6 m 0 0" fill="#8bd134"/></g></g></g></g><g><g transform="translate(0,-1004.3622)"><path d="m 1 1043.36 0 4 c 0 2.216 1.784 4 4 4 l 38 0 c 2.216 0 4 -1.784 4 -4 l 0 -4 c 0 2.216 -1.784 4 -4 4 l -38 0 c -2.216 0 -4 -1.784 -4 -4 z" opacity="0.1"/></g></g></svg>
